X:1
T:Johnny Box
L:1/8
Q:1/8=280
M:2/4
I:linebreak $
K:D
V:1 treble 
V:1
 Ad fa | Ad fa | gB cB | gB cB | Ad fa | Ad fa | gB cB/c/ | ed d2 :| aa fd | aa fd |$ gB cB | %11
 gB cB | aa/a/ fd | aa/a/ fd | gB cB/c/ | ed d2 :| %16
